public/berachain.svg

<svg width="109" height="20" viewBox="0 0 109 20" fill="none" xmlns="http://www.w3.org/2000/svg">
<g clip-path="url(#clip0_462_5324)">
<mask id="mask0_462_5324" style="mask-type:luminance" maskUnits="userSpaceOnUse" x="0" y="0" width="109" height="20">
<path d="M108.5 0H0.5V20H108.5V0Z" fill="white"/>
</mask>
<g mask="url(#mask0_462_5324)">
<path d="M23.0879 14.7694V13.0991C24.1197 12.7474 24.866 11.6485 24.866 10.3518C24.866 9.05505 24.1197 7.95621 23.0879 7.60454V5.93421C24.0538 5.60454 24.7782 4.61553 24.844 3.40674H23.6806V3.91223C23.6806 4.30784 23.4391 4.65948 23.0879 4.81333V4.61553C23.0879 4.26388 22.7806 3.97817 22.4075 3.97817H22.3416C21.9684 3.97817 21.6611 4.26388 21.6611 4.61553V4.85728C21.3099 4.68146 21.0684 4.35179 21.0684 3.95618V3.45069H19.905C19.9928 4.63751 20.6952 5.64849 21.6611 5.97817V7.64849C20.6294 8.00013 19.8831 9.09905 19.8831 10.3957C19.8831 11.6924 20.6294 12.7914 21.6611 13.143V14.8134C20.6952 15.143 19.9709 16.132 19.905 17.3408H21.0684V16.8353C21.0684 16.4397 21.3099 16.0881 21.6611 15.9342V16.176C21.6611 16.5276 21.9684 16.8134 22.3416 16.8134H22.4075C22.7806 16.8134 23.0879 16.5276 23.0879 16.176V15.9342C23.4391 16.1101 23.6806 16.4397 23.6806 16.8353V17.3408H24.844C24.7782 16.0881 24.0538 15.0991 23.0879 14.7694ZM21.0684 11.0771V9.62652C21.0684 9.2309 21.3099 8.87928 21.6611 8.72544V8.96721C21.6611 9.31882 21.9684 9.60452 22.3416 9.60452H22.4075C22.7806 9.60452 23.0879 9.31882 23.0879 8.96721V8.72544C23.4391 8.90121 23.6806 9.2309 23.6806 9.62652V11.0771C23.6806 11.4727 23.4391 11.8243 23.0879 11.9781V11.7364C23.0879 11.3847 22.7806 11.0991 22.4075 11.0991H22.3416C21.9684 11.0991 21.6611 11.3847 21.6611 11.7364V11.9781C21.3099 11.8243 21.0684 11.4727 21.0684 11.0771Z" fill="#B0B0B5"/>
<path d="M30.288 11.2309V9.45067C31.3197 9.09905 32.066 8.00013 32.066 6.70344C32.066 5.40674 31.3197 4.30784 30.288 3.95618V3.40674H28.8831V3.95618C27.8514 4.30784 27.1051 5.40674 27.1051 6.70344C27.1051 8.00013 27.8514 9.09905 28.8831 9.45067V11.2309C27.8514 11.5826 27.1051 12.6814 27.1051 13.9781C27.1051 15.2749 27.8514 16.3737 28.8831 16.7254V17.2749H30.288V16.7254C31.3197 16.3737 32.066 15.2749 32.066 13.9781C32.066 12.6814 31.3197 11.5826 30.288 11.2309ZM28.2904 7.45069V6.00015C28.2904 5.60454 28.5319 5.25289 28.8831 5.09905V5.3408C28.8831 5.69245 29.1904 5.97817 29.5636 5.97817H29.6294C30.0026 5.97817 30.3099 5.69245 30.3099 5.3408V5.09905C30.6612 5.27487 30.9026 5.60454 30.9026 6.00015V7.45069C30.9026 7.84628 30.6612 8.19798 30.3099 8.35182V8.13198C30.3099 7.78036 30.0026 7.49465 29.6294 7.49465H29.5636C29.1904 7.49465 28.8831 7.78036 28.8831 8.13198V8.37375C28.5319 8.19798 28.2904 7.84628 28.2904 7.45069ZM30.8806 14.7034C30.8806 15.0991 30.6392 15.4507 30.288 15.6045V15.2529C30.288 14.9012 29.9806 14.6155 29.6075 14.6155H29.5417C29.1685 14.6155 28.8612 14.9012 28.8612 15.2529V15.6045C28.5099 15.4287 28.2685 15.0991 28.2685 14.7034V13.2529C28.2685 12.8573 28.5099 12.5057 28.8612 12.3518V12.4837C28.8612 12.8353 29.1685 13.1211 29.5417 13.1211H29.6075C29.9806 13.1211 30.288 12.8353 30.288 12.4837V12.3518C30.6392 12.5276 30.8806 12.8573 30.8806 13.2529V14.7034Z" fill="#B0B0B5"/>
<path d="M14.9657 8.9453C14.9438 8.8793 14.9438 8.81338 14.8999 8.74745C14.8999 8.72545 17.117 5.86835 15.0755 4.1101C13.0341 2.35186 10.6633 4.63758 10.6414 4.65955C10.2682 4.54966 9.87302 4.48373 9.49992 4.43977C8.73159 4.32989 7.63403 4.43977 7.63403 4.43977C7.26086 4.46175 6.8877 4.52769 6.51452 4.63758C6.49257 4.61559 4.12184 2.32989 2.08037 4.08812C0.0389116 5.84636 2.23403 8.70353 2.25598 8.72545C2.23403 8.79145 2.21209 8.85738 2.19013 8.9233C1.97062 10.1541 0.477936 10.5277 0.477936 12.6595C0.477936 14.8354 2.03647 16.5497 5.24135 16.5497H6.55843C6.55843 16.5497 7.0633 17.231 8.11696 17.2749C8.11696 17.2749 8.35842 17.2969 8.90723 17.2749C10.0268 17.2749 10.5536 16.5716 10.5536 16.5497H11.8706C15.0755 16.5497 16.6341 14.8354 16.6341 12.6595C16.6999 10.5497 15.1852 10.1541 14.9657 8.9453Z" fill="#B0B0B5"/>
<path d="M37.8172 15.8242V5.05496H42.2953C42.9758 5.05496 43.5685 5.16485 44.0294 5.36265C44.4904 5.56045 44.8636 5.86814 45.0831 6.28573C45.3245 6.68134 45.4563 7.18683 45.4563 7.75827C45.4563 8.32965 45.3026 8.83519 44.9733 9.25273C44.666 9.67034 44.2051 9.93411 43.6343 10.088V9.78027C44.1172 9.89011 44.5343 10.066 44.8855 10.3297C45.2367 10.5934 45.5221 10.9011 45.7197 11.2967C45.9172 11.6923 46.027 12.1319 46.027 12.6373C46.027 13.1429 45.9392 13.6044 45.7855 14C45.6319 14.3957 45.3904 14.7253 45.0831 14.989C44.7758 15.2527 44.4026 15.4506 43.9636 15.6044C43.5245 15.7363 43.0197 15.8022 42.449 15.8022L37.8172 15.8242ZM39.4855 14.2198H42.3831C42.8002 14.2198 43.1514 14.1539 43.4367 14.044C43.744 13.9121 43.9636 13.7363 44.1172 13.4945C44.2709 13.2527 44.3587 12.945 44.3587 12.6154C44.3587 12.3077 44.2709 12.022 44.0953 11.8022C43.9417 11.5824 43.7002 11.4066 43.3928 11.2967C43.0855 11.1649 42.7124 11.1209 42.2953 11.1209H39.4855V14.2198ZM39.4855 9.5165H42.2075C42.5148 9.5165 42.7782 9.45057 43.0197 9.34065C43.2611 9.20881 43.4587 9.05496 43.5904 8.83519C43.744 8.61542 43.8099 8.37365 43.8099 8.08796C43.8099 7.62639 43.6563 7.27474 43.349 7.03298C43.0417 6.79122 42.6026 6.65935 42.0319 6.65935H39.4855V9.5165ZM51.1636 15.978C50.3294 15.978 49.6051 15.8022 48.9465 15.4506C48.3099 15.0989 47.8051 14.6154 47.4319 13.978C47.0806 13.3627 46.9051 12.6593 46.9051 11.8462C46.9051 11.2088 47.0148 10.6373 47.2124 10.1099C47.4099 9.58242 47.6953 9.14288 48.0685 8.74727C48.4417 8.35165 48.8806 8.06596 49.3636 7.84619C49.8685 7.62639 50.4392 7.5165 51.0319 7.5165C51.5587 7.5165 52.0417 7.62639 52.4806 7.82419C52.9417 8.02196 53.3148 8.28573 53.644 8.63734C53.9733 8.98904 54.2367 9.40657 54.4124 9.89011C54.588 10.3517 54.6758 10.8791 54.6758 11.4506L54.6538 12.1319H48.0685L47.7172 10.8791H53.2929L53.0514 11.1429V10.7693C53.0294 10.4396 52.8977 10.1319 52.7221 9.86811C52.5245 9.60442 52.2831 9.38465 51.9758 9.2308C51.6685 9.07696 51.3611 9.01104 51.0099 9.01104C50.4611 9.01104 50.0001 9.12088 49.6051 9.34065C49.2319 9.5385 48.9465 9.84619 48.749 10.2637C48.5514 10.6593 48.4636 11.1649 48.4636 11.7583C48.4636 12.3297 48.5733 12.8132 48.8148 13.2308C49.0563 13.6483 49.3855 13.956 49.8026 14.1758C50.2417 14.3957 50.7245 14.5055 51.2953 14.5055C51.6904 14.5055 52.0636 14.4396 52.3928 14.3077C52.744 14.1758 53.1172 13.9341 53.5124 13.5824L54.3026 14.7033C54.0611 14.945 53.7538 15.1649 53.4026 15.3407C53.0514 15.5165 52.6782 15.6703 52.2831 15.7803C51.9319 15.9341 51.5367 15.978 51.1636 15.978ZM55.949 15.8242V7.73627H57.5514V10.2637L57.3977 9.64834C57.5075 9.25273 57.7051 8.90111 57.9685 8.59342C58.2538 8.28573 58.5611 8.02196 58.9124 7.84619C59.2636 7.67034 59.6367 7.56045 60.0099 7.56045C60.1855 7.56045 60.3392 7.58243 60.4928 7.60441C60.6465 7.62639 60.7782 7.67034 60.888 7.71427L60.4709 9.42857C60.3392 9.38465 60.2075 9.34065 60.0538 9.29673C59.9002 9.25273 59.7685 9.2308 59.6148 9.2308C59.3294 9.2308 59.066 9.29673 58.8246 9.40657C58.5831 9.5165 58.3636 9.64834 58.166 9.84619C57.9904 10.022 57.8367 10.2418 57.727 10.5055C57.6172 10.7473 57.5514 11.033 57.5514 11.3187V15.8242H55.949ZM64.444 15.978C63.7855 15.978 63.1709 15.8022 62.6221 15.4286C62.0733 15.055 61.6343 14.5495 61.3051 13.9121C60.9758 13.2747 60.8221 12.5495 60.8221 11.7583C60.8221 10.945 60.9758 10.2198 61.3051 9.60442C61.6343 8.96704 62.0953 8.46157 62.666 8.10988C63.2367 7.75827 63.8733 7.56045 64.5977 7.56045C65.0148 7.56045 65.4099 7.62639 65.7392 7.73627C66.0904 7.86811 66.3977 8.04396 66.6392 8.26373C66.9026 8.4835 67.1221 8.72527 67.2758 9.01104C67.4514 9.29673 67.5612 9.60442 67.6051 9.93411L67.2538 9.80219V7.71427H68.8563V15.8242H67.2538V13.8901L67.627 13.7803C67.5611 14.066 67.4294 14.3297 67.2319 14.5934C67.0563 14.8572 66.8148 15.077 66.5075 15.2967C66.2221 15.4945 65.8928 15.6703 65.5417 15.7803C65.1904 15.9121 64.8392 15.978 64.444 15.978ZM64.8612 14.5275C65.344 14.5275 65.7611 14.4176 66.1343 14.1758C66.5075 13.9341 66.7929 13.6264 66.9904 13.2088C67.2099 12.7912 67.3197 12.3077 67.3197 11.7803C67.3197 11.2527 67.2099 10.7912 66.9904 10.3737C66.7929 9.95604 66.5075 9.64834 66.1343 9.40657C65.7611 9.16488 65.344 9.05496 64.8612 9.05496C64.4002 9.05496 63.9611 9.16488 63.6099 9.40657C63.2587 9.64834 62.9733 9.95604 62.7538 10.3737C62.5563 10.7912 62.4465 11.2527 62.4465 11.7803C62.4465 12.3077 62.5563 12.7912 62.7538 13.2088C62.9733 13.6264 63.2587 13.9341 63.6099 14.1758C63.9611 14.3957 64.3782 14.5275 64.8612 14.5275ZM74.0367 15.978C73.2904 15.978 72.6099 15.8022 72.0172 15.4286C71.4245 15.055 70.9636 14.5495 70.6124 13.9121C70.2831 13.2747 70.1075 12.5714 70.1075 11.7803C70.1075 10.989 70.2831 10.2857 70.6124 9.64834C70.9636 9.01104 71.4245 8.5055 72.0172 8.13188C72.6099 7.75827 73.2904 7.58244 74.0367 7.58244C74.7611 7.58244 75.3977 7.73627 75.9904 8.02196C76.5831 8.30773 77.044 8.70334 77.3516 9.20881L76.4733 10.2857C76.3197 10.044 76.1002 9.82419 75.8367 9.64834C75.5733 9.45057 75.3099 9.29673 75.0246 9.1868C74.7392 9.07696 74.4538 9.01104 74.1904 9.01104C73.7075 9.01104 73.2685 9.14288 72.8733 9.38465C72.5001 9.62642 72.1929 9.95604 71.9733 10.3737C71.7538 10.7912 71.644 11.2747 71.644 11.7803C71.644 12.2857 71.7538 12.7693 71.9953 13.1868C72.2367 13.6044 72.544 13.9341 72.9392 14.1758C73.3343 14.4176 73.7514 14.5495 74.2343 14.5495C74.5197 14.5495 74.7831 14.5055 75.0246 14.4176C75.288 14.3297 75.5514 14.1978 75.7929 14C76.0343 13.8242 76.2758 13.5824 76.4953 13.3187L77.373 14.3957C77.044 14.8572 76.5831 15.2308 75.9685 15.5385C75.3099 15.8242 74.6733 15.978 74.0367 15.978ZM78.3611 15.8242V4.43957H79.9413V9.40657L79.6563 9.58242C79.7659 9.2308 79.9635 8.90111 80.2492 8.59342C80.5563 8.28573 80.9071 8.04396 81.3024 7.84619C81.7198 7.64837 82.1365 7.56045 82.554 7.56045C83.1683 7.56045 83.673 7.69232 84.0905 7.93411C84.5072 8.1758 84.8151 8.5275 85.0127 9.03296C85.2103 9.5165 85.3198 10.1539 85.3198 10.9011V15.8242H83.7389V11.011C83.7389 10.5495 83.673 10.1758 83.5635 9.86811C83.4317 9.56042 83.2563 9.34065 82.9928 9.20881C82.7294 9.05496 82.4222 9.01104 82.0492 9.03296C81.7413 9.03296 81.4563 9.07696 81.2151 9.1868C80.9516 9.27473 80.7317 9.40657 80.5341 9.58242C80.3587 9.75827 80.2048 9.95604 80.0952 10.1978C79.9857 10.4176 79.9413 10.6593 79.9413 10.945V15.8242H79.1516C79.0198 15.8242 78.8881 15.8242 78.7563 15.8242C78.6246 15.8242 78.4929 15.8242 78.3611 15.8242ZM90.1492 15.978C89.4905 15.978 88.8754 15.8022 88.327 15.4286C87.7786 15.055 87.3389 14.5495 87.0317 13.9121C86.7024 13.2747 86.5492 12.5495 86.5492 11.7583C86.5492 10.945 86.7024 10.2198 87.0317 9.60442C87.3611 8.96704 87.8222 8.46157 88.3928 8.10988C88.9635 7.75827 89.6 7.56045 90.3246 7.56045C90.7413 7.56045 91.1365 7.62639 91.4659 7.73627C91.8175 7.86811 92.1246 8.04396 92.3659 8.26373C92.6294 8.4835 92.8492 8.72527 93.0024 9.01104C93.1786 9.29673 93.2881 9.60442 93.3317 9.93411L92.9809 9.80219V7.71427H94.5833V15.8242H92.9809V13.8901L93.354 13.7803C93.2881 14.066 93.1563 14.3297 92.9587 14.5934C92.7833 14.8572 92.5413 15.077 92.2341 15.2967C91.9492 15.4945 91.6198 15.6703 91.2682 15.7803C90.8952 15.9121 90.5222 15.978 90.1492 15.978ZM90.5659 14.5275C91.0492 14.5275 91.4659 14.4176 91.8389 14.1758C92.2127 13.9341 92.4976 13.6264 92.6952 13.2088C92.9151 12.7912 93.0246 12.3077 93.0246 11.7803C93.0246 11.2527 92.9151 10.7912 92.6952 10.3737C92.4976 9.95604 92.2127 9.64834 91.8389 9.40657C91.4659 9.16488 91.0492 9.05496 90.5659 9.05496C90.1048 9.05496 89.6659 9.16488 89.3151 9.40657C88.9635 9.64834 88.6786 9.95604 88.4587 10.3737C88.2611 10.7912 88.1516 11.2527 88.1516 11.7803C88.1516 12.3077 88.2611 12.7912 88.4587 13.2088C88.6786 13.6264 88.9635 13.9341 89.3151 14.1758C89.6659 14.3957 90.0833 14.5275 90.5659 14.5275ZM96.5587 15.8242V7.73627H98.1389V15.8242H96.5587ZM97.327 5.95606C96.9976 5.95606 96.7341 5.86814 96.5365 5.69232C96.3611 5.5165 96.2516 5.27474 96.2516 4.94507C96.2516 4.63737 96.3389 4.39562 96.5365 4.2198C96.7341 4.04397 96.9976 3.93408 97.327 3.93408C97.6563 3.93408 97.9198 4.02199 98.1174 4.19782C98.2928 4.37364 98.4024 4.6154 98.4024 4.94507C98.4024 5.25276 98.3151 5.49452 98.1174 5.67034C97.9198 5.86814 97.6563 5.95606 97.327 5.95606ZM100.115 15.8242V7.73627H101.695V9.40657L101.41 9.58242C101.52 9.2308 101.717 8.90111 102.002 8.59342C102.31 8.28573 102.661 8.04396 103.056 7.84619C103.473 7.64837 103.89 7.56045 104.307 7.56045C104.922 7.56045 105.427 7.69232 105.844 7.93411C106.261 8.1758 106.568 8.5275 106.766 9.03296C106.963 9.5165 107.073 10.1539 107.073 10.9011V15.8242H105.493V11.011C105.493 10.5495 105.427 10.1758 105.317 9.86811C105.186 9.56042 105.01 9.34065 104.747 9.20881C104.483 9.05496 104.175 9.01104 103.802 9.03296C103.495 9.03296 103.21 9.07696 102.947 9.1868C102.683 9.27473 102.463 9.40657 102.266 9.58242C102.09 9.75827 101.937 9.95604 101.827 10.1978C101.717 10.4176 101.673 10.6593 101.673 10.945V15.8242H100.883C100.752 15.8242 100.62 15.8242 100.488 15.8242C100.379 15.8242 100.247 15.8242 100.115 15.8242Z" fill="#B0B0B5"/>
</g>
</g>
<defs>
<clipPath id="clip0_462_5324">
<rect width="108" height="20" fill="white" transform="translate(0.5)"/>
</clipPath>
</defs>
</svg>

<svg xmlns="http://www.w3.org/2000/svg" width="109" height="20" fill="none"><g clip-path="url(#a)"><mask id="b" width="109" height="20" x="0" y="0" maskUnits="userSpaceOnUse" style="mask-type:luminance"><path fill="#fff" d="M108.5 0H.5v20h108z"/></mask><g fill="#B0B0B5" mask="url(#b)"><path d="M23.088 14.77V13.1c1.032-.353 1.778-1.451 1.778-2.748s-.746-2.396-1.778-2.747v-1.67c.966-.33 1.69-1.32 1.756-2.528h-1.163v.505a.99.99 0 0 1-.593.901v-.197c0-.352-.307-.638-.68-.638h-.066c-.374 0-.68.286-.68.638v.241c-.352-.176-.594-.505-.594-.9V3.45h-1.163c.088 1.187.79 2.197 1.756 2.527v1.67C20.63 8 19.883 9.1 19.883 10.396s.746 2.395 1.778 2.747v1.67c-.966.33-1.69 1.319-1.756 2.528h1.163v-.506a.99.99 0 0 1 .593-.9v.241c0 .352.307.637.68.637h.066c.374 0 .68-.285.68-.637v-.242c.352.176.594.506.594.901v.506h1.163c-.066-1.253-.79-2.242-1.756-2.572m-2.02-3.693v-1.45a.99.99 0 0 1 .593-.902v.242c0 .352.307.638.68.638h.066c.374 0 .68-.286.68-.638v-.242c.352.176.594.506.594.902v1.45a.99.99 0 0 1-.593.901v-.242c0-.351-.307-.637-.68-.637h-.066c-.374 0-.68.286-.68.637v.242a.99.99 0 0 1-.594-.9m9.22.153V9.45C31.32 9.1 32.066 8 32.066 6.704s-.746-2.395-1.778-2.747v-.55h-1.405v.55c-1.032.352-1.778 1.45-1.778 2.747s.746 2.396 1.778 2.748v1.78c-1.032.352-1.778 1.45-1.778 2.747s.746 2.396 1.778 2.747v.55h1.405v-.55c1.032-.351 1.778-1.45 1.778-2.747s-.746-2.395-1.778-2.747M28.29 7.45V6a.99.99 0 0 1 .593-.9v.24c0 .352.307.638.68.638h.066c.374 0 .68-.286.68-.637v-.242c.352.176.594.506.594.901v1.45a.99.99 0 0 1-.593.902v-.22c0-.352-.307-.637-.68-.637h-.066c-.374 0-.68.285-.68.637v.242a1.05 1.05 0 0 1-.594-.923m2.59 7.253a.99.99 0 0 1-.592.902v-.352c0-.352-.307-.637-.68-.637h-.066c-.373 0-.68.285-.68.637v.351c-.352-.175-.593-.505-.593-.9v-1.451a.99.99 0 0 1 .592-.901v.132c0 .351.308.637.68.637h.067c.373 0 .68-.286.68-.637v-.132c.351.176.593.505.593.9zM14.966 8.945c-.022-.066-.022-.132-.066-.198 0-.022 2.217-2.879.175-4.637-2.04-1.758-4.412.528-4.434.55A7 7 0 0 0 9.5 4.44c-.768-.11-1.866 0-1.866 0a5 5 0 0 0-1.12.198c-.021-.022-2.392-2.308-4.434-.55-2.041 1.758.154 4.616.176 4.637l-.066.198C1.97 10.154.478 10.528.478 12.66c0 2.176 1.558 3.89 4.763 3.89h1.317s.505.682 1.559.726c0 0 .241.022.79 0 1.12 0 1.647-.703 1.647-.725h1.317c3.204 0 4.763-1.715 4.763-3.89.066-2.11-1.449-2.506-1.668-3.715m22.851 6.878V5.055h4.478c.68 0 1.273.11 1.734.308.461.197.835.505 1.054.923.242.395.373.9.373 1.472s-.153 1.077-.483 1.495c-.307.417-.768.681-1.339.835V9.78c.483.11.9.286 1.252.55.35.263.636.571.834.967.197.395.307.835.307 1.34s-.088.967-.242 1.363a2.5 2.5 0 0 1-.702.989c-.307.264-.68.462-1.12.615q-.657.198-1.514.198zm1.669-1.604h2.897a2.9 2.9 0 0 0 1.054-.176c.307-.132.527-.308.68-.55a1.64 1.64 0 0 0 .242-.879 1.3 1.3 0 0 0-.264-.813 1.42 1.42 0 0 0-.702-.505c-.307-.132-.68-.176-1.098-.176h-2.81zm0-4.703h2.722c.307 0 .57-.066.812-.176.241-.132.439-.286.57-.506.154-.22.22-.461.22-.747q0-.692-.461-1.055c-.307-.242-.746-.374-1.317-.374h-2.546zm11.678 6.461c-.835 0-1.559-.176-2.218-.527a3.9 3.9 0 0 1-1.514-1.473c-.351-.615-.527-1.319-.527-2.132 0-.637.11-1.209.307-1.736a3.98 3.98 0 0 1 2.152-2.264 4.2 4.2 0 0 1 1.668-.33c.527 0 1.01.11 1.449.308.46.198.834.462 1.163.813.33.352.593.77.768 1.253.176.462.264.99.264 1.56l-.022.682h-6.586l-.35-1.253h5.575l-.242.264v-.374a1.87 1.87 0 0 0-.329-.9 2.1 2.1 0 0 0-.746-.638 2.1 2.1 0 0 0-.966-.22c-.549 0-1.01.11-1.405.33a1.95 1.95 0 0 0-.856.923c-.198.395-.285.9-.285 1.494 0 .572.11 1.055.35 1.473.242.417.572.725.989.945.439.22.922.33 1.492.33.395 0 .769-.066 1.098-.198q.526-.198 1.12-.726l.79 1.121a3.5 3.5 0 0 1-.9.638 6.3 6.3 0 0 1-1.12.44c-.351.153-.746.197-1.12.197m4.785-.154V7.736h1.602v2.528l-.153-.616c.11-.395.307-.747.57-1.055.286-.307.593-.571.944-.747a2.5 2.5 0 0 1 1.098-.286c.175 0 .33.022.483.044.154.022.285.066.395.11l-.417 1.715c-.132-.044-.263-.088-.417-.132a1.5 1.5 0 0 0-.44-.066c-.285 0-.548.066-.79.176-.24.11-.46.241-.658.44-.176.175-.33.395-.439.659a2 2 0 0 0-.176.813v4.505zm8.495.154a3.17 3.17 0 0 1-1.822-.55 4 4 0 0 1-1.317-1.516c-.33-.637-.483-1.363-.483-2.154 0-.813.154-1.538.483-2.154a3.74 3.74 0 0 1 1.361-1.494 3.6 3.6 0 0 1 1.932-.55c.417 0 .812.066 1.141.176.351.132.659.308.9.528.264.22.483.461.637.747q.262.429.33.923l-.352-.132V7.714h1.602v8.11h-1.602V13.89l.373-.11a2.15 2.15 0 0 1-.395.813c-.176.264-.417.484-.725.704a3.6 3.6 0 0 1-.965.483 3 3 0 0 1-1.098.198m.417-1.45c.483 0 .9-.11 1.273-.352s.659-.55.856-.967c.22-.418.33-.901.33-1.429 0-.527-.11-.989-.33-1.406a2.3 2.3 0 0 0-.856-.967c-.373-.242-.79-.352-1.273-.352-.46 0-.9.11-1.251.352a2.6 2.6 0 0 0-.856.967 3.2 3.2 0 0 0-.307 1.406c0 .528.11 1.011.307 1.429.22.417.505.725.856.967.351.22.768.351 1.251.351m9.176 1.45c-.747 0-1.427-.176-2.02-.55a4.06 4.06 0 0 1-1.405-1.516 4.56 4.56 0 0 1-.504-2.132c0-.791.175-1.494.504-2.132a4.06 4.06 0 0 1 1.405-1.516c.593-.374 1.273-.55 2.02-.55a4.4 4.4 0 0 1 1.953.44c.593.286 1.054.681 1.362 1.187l-.879 1.077a2.2 2.2 0 0 0-.636-.638 3.4 3.4 0 0 0-.812-.461 2.4 2.4 0 0 0-.835-.176c-.483 0-.921.132-1.317.374-.373.241-.68.571-.9.989-.22.417-.329.9-.329 1.406s.11.99.351 1.407c.242.417.549.747.944.989s.812.373 1.295.373q.43 0 .79-.131a2.4 2.4 0 0 0 .769-.418 4 4 0 0 0 .702-.681l.878 1.077c-.329.461-.79.835-1.404 1.143-.66.285-1.296.439-1.932.439m4.324-.154V4.44h1.58v4.967l-.285.175q.165-.526.593-.989a4 4 0 0 1 1.053-.747 2.9 2.9 0 0 1 1.252-.286c.614 0 1.119.132 1.537.374.416.242.724.593.922 1.099.197.484.307 1.12.307 1.868v4.923h-1.581v-4.813c0-.461-.066-.835-.175-1.143-.132-.308-.308-.527-.571-.66-.264-.153-.57-.197-.944-.175-.308 0-.593.044-.834.154-.263.088-.483.22-.68.395a2.1 2.1 0 0 0-.44.616 1.6 1.6 0 0 0-.154.747v4.88h-1.58m11.788.154a3.17 3.17 0 0 1-1.822-.55 3.8 3.8 0 0 1-1.295-1.516c-.33-.637-.483-1.363-.483-2.154 0-.813.153-1.538.483-2.154.33-.637.79-1.142 1.36-1.494a3.6 3.6 0 0 1 1.933-.55c.416 0 .811.066 1.14.176.352.132.66.308.9.528.264.22.484.461.637.747q.265.429.33.923l-.351-.132V7.714h1.602v8.11H92.98V13.89l.373-.11a2.15 2.15 0 0 1-.395.813c-.176.264-.418.484-.725.704a3.6 3.6 0 0 1-.966.483 3.3 3.3 0 0 1-1.119.198m.417-1.45c.483 0 .9-.11 1.273-.352.374-.242.659-.55.856-.967.22-.418.33-.901.33-1.429 0-.527-.11-.989-.33-1.406a2.3 2.3 0 0 0-.856-.967c-.373-.242-.79-.352-1.273-.352-.461 0-.9.11-1.25.352a2.6 2.6 0 0 0-.857.967 3.2 3.2 0 0 0-.307 1.406c0 .528.11 1.011.307 1.429.22.417.504.725.856.967.35.22.768.351 1.25.351m5.993 1.296V7.736h1.58v8.088zm.768-9.868q-.495 0-.79-.264c-.176-.176-.285-.417-.285-.747 0-.308.087-.55.285-.725.197-.176.46-.286.79-.286q.495 0 .79.264c.176.176.285.417.285.747 0 .308-.087.55-.285.725-.197.198-.46.286-.79.286m2.788 9.868V7.736h1.58v1.67l-.285.176q.165-.526.592-.989a4 4 0 0 1 1.054-.747 2.9 2.9 0 0 1 1.251-.286c.615 0 1.12.132 1.537.374s.724.593.922 1.099c.197.484.307 1.12.307 1.868v4.923h-1.58v-4.813c0-.461-.066-.835-.176-1.143-.131-.308-.307-.527-.57-.66-.264-.153-.572-.197-.945-.175-.307 0-.592.044-.855.154-.264.088-.484.22-.681.395a2.1 2.1 0 0 0-.439.616c-.11.22-.154.461-.154.747v4.88h-1.558"/></g></g><defs><clipPath id="a"><path fill="#fff" d="M.5 0h108v20H.5z"/></clipPath></defs></svg>
